X: 3208
T: ATHOLE COMMERS
Q: "Highland Schottische."
R: Schottische.
%R: shottish
B: James Kerr "Merry Melodies" v.3 p.24 #208
Z: 2016 John Chambers <jc:trillian.mit.edu>
M: C
L: 1/16
K: Am
|:\
AAA2 A4 A3ce3c | AAA2 A4 B3Gd3B |\
AAA2 A4 A3ce3c | eg3 dg3 B3Gd3B :|
|:\
eA3 e3d eA3 Aa3 | eA3 e3d BG3 Gg3 |\
e3Ae3d g3ab3a | g^fed g3d BG3 Gg3 :|

%%sep 1 1 500
%%sep 1 1 500

